mace.svg

<svg fill="currentColor" viewBox="0 0 24 24"><path d="M19.92 9.27c.05-.27.08-.51.08-.77s-.03-.5-.08-.77L23 8.5zm-5.23 3.65.81 3.24.81-3.24c-.26.05-.53.08-.81.08s-.55-.03-.81-.08m-2.99-2.03-4.91 4.9-.7-.7L1 20.17 3.83 23l5.08-5.09-.7-.7 4.9-4.91c-.57-.36-1.05-.84-1.41-1.41m4.57-6.81L15.5 1l-.77 3.08c.27-.05.51-.08.77-.08s.5.03.77.08M8 8.5l3.08.77C11.03 9 11 8.76 11 8.5s.03-.5.08-.77zm10.63 1.54c.23-.46.37-.98.37-1.54s-.14-1.08-.37-1.54L21 3l-3.96 2.37c-.46-.23-.98-.37-1.54-.37s-1.08.14-1.54.37L10 3l2.37 3.96c-.23.46-.37.98-.37 1.54 0 1.93 1.57 3.5 3.5 3.5.56 0 1.08-.14 1.54-.37L21 14z"/></svg>

<svg  viewBox="0 0 24 24" fill="currentColor"><path  d="M19.92 9.27C19.97 9 20 8.76 20 8.5S19.97 8 19.92 7.73L23 8.5L19.92 9.27M14.69 12.92L15.5 16.16L16.31 12.92C16.05 12.97 15.78 13 15.5 13S14.95 12.97 14.69 12.92M11.7 10.89L6.79 15.79L6.09 15.09L1 20.17L3.83 23L8.91 17.91L8.21 17.21L13.11 12.3C12.54 11.94 12.06 11.46 11.7 10.89M16.27 4.08L15.5 1L14.73 4.08C15 4.03 15.24 4 15.5 4S16 4.03 16.27 4.08M8 8.5L11.08 9.27C11.03 9 11 8.76 11 8.5S11.03 8 11.08 7.73L8 8.5M18.63 10.04C18.86 9.58 19 9.06 19 8.5S18.86 7.42 18.63 6.96L21 3L17.04 5.37C16.58 5.14 16.06 5 15.5 5S14.42 5.14 13.96 5.37L10 3L12.37 6.96C12.14 7.42 12 7.94 12 8.5C12 10.43 13.57 12 15.5 12C16.06 12 16.58 11.86 17.04 11.63L21 14L18.63 10.04Z"/></svg>
